X: 141
T: 141. Seelenbr\"autigam
N: Derived from chor141.krn
C: Johann Sebastian Bach
%%abc-version 2.0
%%abcx-abcm2ps-target-version 5.9.1 (29 Sep 2008)
%%abc-creator hum2abc beta
%%abcx-conversion-date 2019/03/11 17:28:18
%%abc-edited-by Craig Stuart Sapp
%%humdrum-veritas 1025331532
%%humdrum-veritas-data 4194991615
%%
%%barnumbers 0
L: 1/4
M: C
%%staves [1 2 3 4]
V: 1 clef=treble
V: 2 clef=treble
V: 3 clef=treble-8
V: 4 clef=bass
K: A
[V:1] AAGA | 
[V:2] EEEE/F/ | 
[V:3] ccBc | 
[V:4] A,,/B,,/ C,/D,/E,A,, | 
[V:1] !fermata!B2AB | 
[V:2] !fermata!G2FE | 
[V:3] !fermata!e2c/d/c/B/- | 
[V:4] !fermata!E,2F,G, | 
[V:1] cB!fermata!A2 | 
[V:2] EE!fermata!E2 | 
[V:3] B/AG/!fermata!c2 | 
[V:4] A,E,!fermata!A,,2 | 
[V:1] cded | 
[V:2] AAA-A/B/- | 
[V:3] efef/e/ | 
[V:4] A,/G,/F,C,F,/G,/ | 
[V:1] cBc2 | 
[V:2] B/A/ G/B/- B/A//G//A- | 
[V:3] eee2 | 
[V:4] A,E,/G,/A,A,, | 
[V:1] !fermata!B2AB | 
[V:2] A!fermata!GFG | 
[V:3] !fermata!e2ce | 
[V:4] !fermata!E,2F,E, | 
[V:1] cBAG | 
[V:2] AG-G/F^E/ | 
[V:3] e-e/d/cc | 
[V:4] A,E,F,C, | 
[V:1] A3/G/!fermata!G2 | 
[V:2] F/^E/F2!fermata!E | 
[V:3] c2!fermata!c2 | 
[V:4] F,,/G,,/ A,,/B,,/!fermata!C,2 | 
[V:1] AAGA | 
[V:2] F=EEE | 
[V:3] ccBA- | 
[V:4] F,C,/D,/E,C,/A,,/ | 
[V:1] !fermata!B2AB | 
[V:2] !fermata!E2C/F/E- | 
[V:3] A!fermata!GA/d/c/B/ | 
[V:4] !fermata!E,2F,G, | 
[V:1] cB/A/!fermata!A2 |]  
[V:2] E/A/G!fermata!E2 |]  
[V:3] A/e/ e3//d//!fermata!c2 |]  
[V:4] A,E,!fermata!A,,2 |]  



